src/24x24/places/folder-gruvbox-original-green-mega.svg

<?xml version="1.0" encoding="UTF-8"?>
<svg width="24" height="24" version="1" xmlns="http://www.w3.org/2000/svg">
 <rect x="2" y="9.5" width="20" height="12" rx="1" ry="1" opacity=".2"/>
 <path d="m2 17c0 0.554 0.446 1 1 1h18c0.554 0 1-0.446 1-1v-11c0-0.554-0.446-1-1-1h-9c-1.5 0-2-2-3.5-2h-5.5c-0.554 0-1 0.446-1 1" fill="#79740e"/>
 <rect x="2" y="8.5" width="20" height="12" rx="1" ry="1" opacity=".2"/>
 <rect x="4" y="7" width="16" height="8" rx="1" ry="1" fill="#d7d9ae"/>
 <rect x="2" y="9" width="20" height="12" rx="1" ry="1" fill="#b8bb26"/>
 <path d="m3 3c-0.554 0-1 0.446-1 1v0.5c0-0.554 0.446-1 1-1h5.5c1.5 0 2 2 3.5 2h9c0.554 0 1 0.446 1 1v-0.5c0-0.554-0.446-1-1-1h-9c-1.5 0-2-2-3.5-2z" fill="#d7d9ae" opacity=".1"/>
 <path d="m12 11c-2.2092 0-4 1.791-4 4s1.7908 4 4 4c2.209 0 4-1.791 4-4s-1.791-4-4-4zm-2 2h1l1 1.5 1-1.5h1v4h-1v-2l-1 1-1-1v2h-1z" fill="#333e34"/>
</svg>

<svg xmlns="http://www.w3.org/2000/svg" width="24" height="24" version="1">
 <rect style="opacity:0.2" width="20" height="12" x="2" y="9.5" rx="1" ry="1"/>
 <path style="fill:#79740e" d="M 2,17 C 2,17.554 2.446,18 3,18 H 21 C 21.554,18 22,17.554 22,17 V 6 C 22,5.446 21.554,5 21,5 H 12 C 10.5,5 10,3 8.5,3 H 3 C 2.446,3 2,3.446 2,4"/>
 <rect style="opacity:0.2" width="20" height="12" x="2" y="8.5" rx="1" ry="1"/>
 <rect style="fill:#d7d9ae" width="16" height="8" x="4" y="7" rx="1" ry="1"/>
 <rect style="fill:#b8bb26" width="20" height="12" x="2" y="9" rx="1" ry="1"/>
 <path style="opacity:0.1;fill:#d7d9ae" d="M 3,3 C 2.446,3 2,3.446 2,4 V 4.5 C 2,3.946 2.446,3.5 3,3.5 H 8.5 C 10,3.5 10.5,5.5 12,5.5 H 21 C 21.554,5.5 22,5.946 22,6.5 V 6 C 22,5.446 21.554,5 21,5 H 12 C 10.5,5 10,3 8.5,3 Z"/>
 <path style="fill:#333e34" d="M 12,11 C 9.7908,11 8,12.791 8,15 8,17.209 9.7908,19 12,19 14.209,19 16,17.209 16,15 16,12.791 14.209,11 12,11 Z M 10,13 H 11 V 13 13 L 12,14.5 13,13 H 14 V 17 H 13 V 15 L 12,16 11,15 V 17 H 10 Z"/>
</svg>
